X: 28261
T: Mrs. Judge
R: reel
M: 4/4
K: Gminor
gf|d2 G2 G2 B2|ABAG F2 d2|dcBA cBAG|F4 d2d2|
G2A2 B2c2|dedc B2g2|gab2 d2 b2|Ta4 g2f2|
gfd2 d2 g2|fgfd B2d2|cBAB c2B2|A4 G2F2|
d2B2 e2c2|f2d2 g2d2|edcB dcBA|G4 G2:|
Bc|d2d2 e2d2|dcBA B2f2|gab2 d2b2|gab2 d2b2|
abc'2 f2c'2|babg d'c'd'g|fdfg dcde|Td4 d2b2|
baga b2a2|g3a g2fe|d2ed c2B2|B2A2 G2F2|
GABc d2g2|FGAB c2f2|dcdB dcBA|G4 G2:|
M:6/8
GBd GBd|Bc/B/A/G/ Add|FfA Ggd|Bc/B/A/B/ G2:|
dfb dfb|b/a/g/f/g/a/ bfd|ee/d/c/B/ cfF|dgG g2f|
g/f/d/f/g f/d/c/d/f|d/c/B/c/d/B/ cAF|G/A/BG A/B/cA|B/c/ddG2:|

